X:351
T:The yellow tinker
T:The drunken tinker
T:Dick Cosgrove's reel
R:Reel
O:Ireland
S:from Altan, The Red Crow
D:Altan, The Red Crow Green Linnet 1109
Z:Transcription:Alan Ng, chords:Mike Long
M:C|
L:1/8
K:G
"Am"EAAG EGAG|"Am"EAA2 "D"fded|"Am"EAAG EDEF|"G"G2 BG cGBG|\
"Am"EAAG EGAG|
"Am"EAA2 "D"fded|"Am"EAAG EDEF|"G"GABd dBGB:|\
|:"A"A2eA fAeA|"A"fAeA "G"dBGB|
"A"A2eA fAeA|"G"d2BG DGBd|\
"A"A2eA fAeA|"A"fAeA "G"dBGB|"A"e3f "C"gfge|"G"d2BG DGBG:|
